IMB-X-Files/The-Ambassadors-Assets/660be88117e607ed4613cd45_﹟05.svg

<svg fill="none" height="80" viewBox="0 0 80 80" width="80" xmlns="http://www.w3.org/2000/svg"><path d="m60.6786 17.2209c5.7324-.3769 10.0142.8743 11.7688 3.9134 4.0958 7.0941-7.1304 21.2434-25.0743 31.6033-10.2568 5.9218-20.4884 9.3236-28.1373 9.8267m41.4428-45.3434c0 .9838-.7976 1.7813-1.7813 1.7813-.9838 0-1.7814-.7975-1.7814-1.7813s.7976-1.7813 1.7814-1.7813c.9837 0 1.7813.7975 1.7813 1.7813zm-3.512.4235c-7.1196 1.1532-15.8888 4.3589-24.6256 9.4032-17.944 10.3599-29.17008 24.5092-25.0743 31.6033 1.36846 2.3702 4.2742 3.653 8.2065 3.924m3.5626-45.354c7.6489.503 17.8805 3.9049 28.1373 9.8267 17.9439 10.3599 29.17 24.5092 25.0742 31.6033-1.7546 3.039-6.0363 4.2903-11.7688 3.9134m-41.4427-45.3434c0 .9838-.7976 1.7813-1.7814 1.7813-.9837 0-1.7813-.7975-1.7813-1.7813s.7976-1.7813 1.7813-1.7813c.9838 0 1.7814.7975 1.7814 1.7813zm-3.5627-.0106c-3.9322.271-6.83798 1.5537-8.20644 3.924-4.09578 7.0941 7.13034 21.2434 25.07424 31.6033 8.7517 5.0528 17.4954 8.2716 24.6217 9.4198m3.5159.4069c0 .9838-.7975 1.7813-1.7813 1.7813s-1.7813-.7975-1.7813-1.7813.7975-1.7813 1.7813-1.7813 1.7813.7975 1.7813 1.7813zm-41.4427-.0236c0 .9838-.7975 1.7813-1.7813 1.7813s-1.7813-.7975-1.7813-1.7813.7975-1.7813 1.7813-1.7813 1.7813.7975 1.7813 1.7813zm35.5535-22.6481c0 20.7198-6.6406 37.5166-14.8321 37.5166-8.1916 0-14.8322-16.7968-14.8322-37.5166 0-20.7199 6.6406-37.51662 14.8322-37.51662 8.1915 0 14.8321 16.79672 14.8321 37.51662zm-5.453 0c0 5.1799-4.1992 9.3791-9.3792 9.3791s-9.3792-4.1992-9.3792-9.3791c0-5.18 4.1992-9.3792 9.3792-9.3792s9.3792 4.1992 9.3792 9.3792z" stroke="#6f9fff" stroke-linecap="round" stroke-linejoin="round" stroke-width="2"/></svg>

<svg width="80" height="80" viewBox="0 0 80 80" fill="none" xmlns="http://www.w3.org/2000/svg">
    <path
        d="M60.6786 17.2209C66.411 16.844 70.6928 18.0952 72.4474 21.1343C76.5432 28.2284 65.317 42.3777 47.3731 52.7376C37.1163 58.6594 26.8847 62.0612 19.2358 62.5643M60.6786 17.2209C60.6786 18.2047 59.881 19.0022 58.8973 19.0022C57.9135 19.0022 57.1159 18.2047 57.1159 17.2209C57.1159 16.2371 57.9135 15.4396 58.8973 15.4396C59.881 15.4396 60.6786 16.2371 60.6786 17.2209ZM57.1666 17.6444C50.047 18.7976 41.2778 22.0033 32.541 27.0476C14.597 37.4075 3.37092 51.5568 7.4667 58.6509C8.83516 61.0211 11.7409 62.3039 15.6732 62.5749M19.2358 17.2209C26.8847 17.7239 37.1163 21.1258 47.3731 27.0476C65.317 37.4075 76.5431 51.5568 72.4473 58.6509C70.6927 61.6899 66.411 62.9412 60.6785 62.5643M19.2358 17.2209C19.2358 18.2047 18.4382 19.0022 17.4544 19.0022C16.4707 19.0022 15.6731 18.2047 15.6731 17.2209C15.6731 16.2371 16.4707 15.4396 17.4544 15.4396C18.4382 15.4396 19.2358 16.2371 19.2358 17.2209ZM15.6731 17.2103C11.7409 17.4813 8.83512 18.764 7.46666 21.1343C3.37088 28.2284 14.597 42.3777 32.5409 52.7376C41.2926 57.7904 50.0363 61.0092 57.1626 62.1574M60.6785 62.5643C60.6785 63.5481 59.881 64.3456 58.8972 64.3456C57.9134 64.3456 57.1159 63.5481 57.1159 62.5643C57.1159 61.5805 57.9134 60.783 58.8972 60.783C59.881 60.783 60.6785 61.5805 60.6785 62.5643ZM19.2358 62.5407C19.2358 63.5245 18.4383 64.322 17.4545 64.322C16.4707 64.322 15.6732 63.5245 15.6732 62.5407C15.6732 61.5569 16.4707 60.7594 17.4545 60.7594C18.4383 60.7594 19.2358 61.5569 19.2358 62.5407ZM54.7893 39.8926C54.7893 60.6124 48.1487 77.4092 39.9572 77.4092C31.7656 77.4092 25.125 60.6124 25.125 39.8926C25.125 19.1727 31.7656 2.37598 39.9572 2.37598C48.1487 2.37598 54.7893 19.1727 54.7893 39.8926ZM49.3363 39.8926C49.3363 45.0725 45.1371 49.2717 39.9571 49.2717C34.7771 49.2717 30.5779 45.0725 30.5779 39.8926C30.5779 34.7126 34.7771 30.5134 39.9571 30.5134C45.1371 30.5134 49.3363 34.7126 49.3363 39.8926Z"
        stroke="#6F9FFF" stroke-width="2" stroke-linecap="round" stroke-linejoin="round" />
</svg>
